X:1
T:Title
%%score { 1 | 2 }
L:1/8
M:4/4
K:Bb
V:1 treble nm="Grand Piano"
V:2 bass 
V:1
 z4 z2[Q:1/4=100] F2 | [DF]3 [DF] [EG]2 [EA]2 | [DB]2 [EG]2 [DF]2 F2 | A3 A G2 F2 |[M:3/4] [DB]6 | %5
[M:1/4] [DB]2 |[M:4/4] c3 c A2 F2 | [FB]2 c2 d2 [Fd]2 | [Fc]2 [=EG]2 [FA]3 [EB] |[M:3/4] c6 | %10
[M:1/4] F2 |[M:4/4] [DB]2 [FB]2 B>A G>A | [DB]6 D2 | G2 A2 B3 A |[M:3/4] G6 |[M:1/4] F2 | %16
[M:4/4] [DB]2 [EA]2 [Ec]2 [DB]2 | d2 c2 [Ae]2 d2 | [_Af]3 [Ge] [Fd]2 [Ec]2 |[M:3/4] [DB]6 |] %20
V:2
 z4 z2 F,2 | [B,,B,]3 [B,,B,] [E,B,]2 [C,F,]2 | [B,,F,]2 [B,,B,]2 [B,,B,]2 [D,B,]2 | %3
 [F,CF]3 [F,CF] [F,CE]2 [F,A,E]2 |[M:3/4] [B,,B,]6 |[M:1/4] [B,,B,]2 | %6
[M:4/4] [F,A,F]3 [F,A,F] [F,CF]2 [E,A,]2 | [D,B,]2[K:treble] [F,A,F]2 [B,F]2[K:bass] [B,,B,]2 | %8
 [C,A,]2 [C,C]2 [C,C]3 [C,G,] |[M:3/4] [F,A,E]6 |[M:1/4] [F,E]2 | %11
[M:4/4] [B,,F,]2 [D,B,]2 [F,CE]>[F,CE] [F,CE]>[F,E] | [B,,F,]6 D,2 | %13
 [G,B,D]2 [G,CD]2 [G,D]3 [G,CD] |[M:3/4] [G,B,D]6 |[M:1/4] [F,A,E]2 | %16
[M:4/4] [B,,B,]2 [C,F,]2 [A,,F,]2 [B,,F,]2 | [B,F]2 [A,EF]2 [F,C]2 [B,B]2 | %18
 [D,B,]3 [E,B,] [F,B,]2 [F,A,]2 |[M:3/4] [B,,B,]6 |] %20

